Catalina-dark/actions/22/player-volume.svg

<svg xmlns="http://www.w3.org/2000/svg" viewBox="0 0 22 22">
  <defs id="defs3051">
    <style type="text/css" id="current-color-scheme">
      .ColorScheme-Text {
        color:#f2f2f2
      }
      </style>
  </defs>
 <path 
     style="fill:currentColor;fill-opacity:1;stroke:none"      
	 class="ColorScheme-Text"
        d="M 11 3 C 10.771966 3 10.574868 3.0834965 10.408203 3.25 L 6.0273438 7.6308594 L 2.578125 7.6308594 C 2.3499296 7.6308594 2.1529931 7.7143559 1.9863281 7.8808594 C 1.8196631 8.0475244 1.7363281 8.2465755 1.7363281 8.4746094 L 1.7363281 13.525391 C 1.7363281 13.753424 1.8196631 13.952637 1.9863281 14.119141 C 2.1531546 14.285806 2.3500911 14.369141 2.578125 14.369141 L 6.0253906 14.369141 L 10.408203 18.75 C 10.574868 18.916503 10.771966 19 11 19 C 11.228195 19 11.425132 18.916503 11.591797 18.75 C 11.758462 18.583497 11.841797 18.386237 11.841797 18.158203 L 11.841797 3.8417969 C 11.841797 3.613763 11.7583 3.416665 11.591797 3.25 C 11.42497 3.0834965 11.228195 3 11 3 z M 15.841797 4.7363281 C 15.613763 4.7363281 15.416826 4.8196631 15.25 4.9863281 C 15.083497 5.1529931 15 5.3500911 15 5.578125 C 15 5.9203373 15.17146 6.1799214 15.513672 6.3554688 C 16.004784 6.6098266 16.338286 6.8021351 16.513672 6.9335938 C 17.16289 7.4074262 17.669189 8.0018493 18.033203 8.7167969 C 18.397218 9.4317444 18.578125 10.192999 18.578125 11 C 18.578125 11.807001 18.397218 12.568256 18.033203 13.283203 C 17.669189 13.998312 17.162729 14.592735 16.513672 15.066406 C 16.338286 15.198026 16.004784 15.390173 15.513672 15.644531 C 15.17146 15.820079 15 16.07771 15 16.419922 C 15 16.647956 15.083497 16.847168 15.25 17.013672 C 15.416826 17.180498 15.618553 17.263672 15.855469 17.263672 C 15.960765 17.263672 16.069738 17.24087 16.183594 17.197266 C 17.411456 16.679506 18.398899 15.852767 19.144531 14.716797 C 19.890163 13.580988 20.263672 12.342202 20.263672 11 C 20.263672 9.6577978 19.890163 8.419658 19.144531 7.2832031 C 18.398899 6.1473942 17.411456 5.3203325 16.183594 4.8027344 C 16.069738 4.7589687 15.955652 4.7363281 15.841797 4.7363281 z M 14.525391 7.8417969 C 14.297357 7.8417969 14.100097 7.9218413 13.933594 8.0839844 C 13.76709 8.2462889 13.683594 8.446839 13.683594 8.6835938 C 13.683594 8.8678619 13.736339 9.0231309 13.841797 9.1503906 C 13.947093 9.2776503 14.075386 9.3884154 14.224609 9.4804688 C 14.37351 9.5725221 14.522652 9.6735466 14.671875 9.7832031 C 14.821098 9.8928596 14.947438 10.04829 15.052734 10.25 C 15.157707 10.451871 15.210938 10.701715 15.210938 11 C 15.210938 11.298285 15.157869 11.548129 15.052734 11.75 C 14.947438 11.951871 14.821098 12.106979 14.671875 12.216797 C 14.522652 12.326453 14.37351 12.427478 14.224609 12.519531 C 14.075386 12.611423 13.947093 12.720558 13.841797 12.847656 C 13.736501 12.975077 13.683594 13.132138 13.683594 13.316406 C 13.683594 13.553322 13.76709 13.751758 13.933594 13.914062 C 14.100097 14.076367 14.297357 14.158203 14.525391 14.158203 C 14.656849 14.158203 14.767776 14.135401 14.855469 14.091797 C 15.469642 13.845837 15.963041 13.435935 16.335938 12.861328 C 16.708834 12.286883 16.894531 11.66666 16.894531 11 C 16.894531 10.33334 16.708834 9.7098264 16.335938 9.1308594 C 15.962879 8.5518924 15.469642 8.1451193 14.855469 7.9082031 C 14.767776 7.8644374 14.656849 7.8417969 14.525391 7.8417969 z "
     />
</svg>

<svg viewBox="0 0 22 22" xmlns="http://www.w3.org/2000/svg">
<defs>
<style id="current-color-scheme" type="text/css">.ColorScheme-Text {
        color:#dedede
      }</style>
</defs>
<path class="ColorScheme-Text" d="m11 3c-0.22803 0-0.42513 0.083496-0.5918 0.25l-4.3809 4.3809h-3.4492c-0.2282 0-0.42513 0.083496-0.5918 0.25-0.16666 0.16666-0.25 0.36572-0.25 0.59375v5.0508c0 0.22803 0.083335 0.42725 0.25 0.59375 0.16683 0.16666 0.36376 0.25 0.5918 0.25h3.4473l4.3828 4.3809c0.16666 0.1665 0.36376 0.25 0.5918 0.25 0.2282 0 0.42513-0.083497 0.5918-0.25s0.25-0.36376 0.25-0.5918v-14.316c0-0.22803-0.083497-0.42513-0.25-0.5918-0.16683-0.1665-0.3636-0.25-0.5918-0.25zm4.8418 1.7363c-0.22803 0-0.42497 0.083335-0.5918 0.25-0.1665 0.16666-0.25 0.36376-0.25 0.5918 0 0.34221 0.17146 0.6018 0.51367 0.77734 0.49111 0.25436 0.82461 0.44667 1 0.57812 0.64922 0.47383 1.1555 1.0683 1.5195 1.7832 0.36402 0.71495 0.54492 1.4762 0.54492 2.2832s-0.18091 1.5683-0.54492 2.2832c-0.36401 0.71511-0.87047 1.3095-1.5195 1.7832-0.17539 0.13162-0.50889 0.32377-1 0.57812-0.34221 0.17555-0.51367 0.43318-0.51367 0.77539 0 0.22803 0.083497 0.42725 0.25 0.59375 0.16683 0.16683 0.36855 0.25 0.60547 0.25 0.1053 0 0.21427-0.022802 0.32812-0.066406 1.2279-0.51776 2.2153-1.3445 2.9609-2.4805 0.74563-1.1358 1.1191-2.3746 1.1191-3.7168 0-1.3422-0.37351-2.5803-1.1191-3.7168-0.74563-1.1358-1.7331-1.9629-2.9609-2.4805-0.11386-0.043766-0.22794-0.066406-0.3418-0.066406zm-1.3164 3.1055c-0.22803 0-0.42529 0.080044-0.5918 0.24219-0.1665 0.1623-0.25 0.36285-0.25 0.59961 0 0.18427 0.052745 0.33954 0.1582 0.4668 0.1053 0.12726 0.23359 0.23802 0.38281 0.33008 0.1489 0.092053 0.29804 0.19308 0.44727 0.30273s0.27556 0.26509 0.38086 0.4668c0.10497 0.20187 0.1582 0.45172 0.1582 0.75s-0.053069 0.54813-0.1582 0.75c-0.1053 0.20187-0.23164 0.35698-0.38086 0.4668-0.14922 0.10966-0.29836 0.21068-0.44727 0.30273-0.14922 0.091892-0.27752 0.20103-0.38281 0.32812-0.1053 0.12742-0.1582 0.28448-0.1582 0.46875 0 0.23692 0.083496 0.43535 0.25 0.59766 0.1665 0.1623 0.36376 0.24414 0.5918 0.24414 0.13146 0 0.24238-0.022802 0.33008-0.066406 0.61417-0.24596 1.1076-0.65586 1.4805-1.2305 0.3729-0.57444 0.55859-1.1947 0.55859-1.8613s-0.1857-1.2902-0.55859-1.8691c-0.37306-0.57897-0.8663-0.98574-1.4805-1.2227-0.087693-0.043766-0.19862-0.066406-0.33008-0.066406z" fill="currentColor"/>
</svg>
